.local/share/icons/Gruvbox-Plus-Dark/actions/16/symbol-fit.svg

<svg width="16" height="16" version="1.1" xmlns="http://www.w3.org/2000/svg">
  <defs>
    <style id="current-color-scheme" type="text/css">.ColorScheme-Text { color:#ebdbb2; } .ColorScheme-Highlight { color:#458588; }</style>
  </defs>
  <path class="ColorScheme-Text" d="m8 2 2 3h-4zm0 12 2-3h-4zm3-8v4l3-2zm-6 0v4l-3-2zm-4-5v14h14v-14zm1 1h12v12h-12z" fill="currentColor"/>
</svg>

<svg xmlns="http://www.w3.org/2000/svg" width="16" height="16" version="1.1">
 <defs>
  <style id="current-color-scheme" type="text/css">
   .ColorScheme-Text { color:#565656; } .ColorScheme-Highlight { color:#4285f4; }
  </style>
 </defs>
 <path style="fill:currentColor" class="ColorScheme-Text" d="M 8,2 10,5 H 6 Z M 8,14 10,11 H 6 Z M 11,6 V 10 L 14,8 Z M 5,6 V 10 L 2,8 Z M 0,0 V 16 H 16 V 0 Z M 1,1 H 15 V 15 H 1 Z"/>
</svg>
